X: 30330
T: Old Monaghan Twig, The
R: reel
M: 4/4
K: Amixolydian
ed|cABd cA G2|Adde f2 ed|cABd cAag|eage d2 ed|
cABd cA G2|Adde f2 ed|cABd cAag|eage d2 cd|
eaaf gfed|cdef g2 fg|eaag eaag|eage d2 cd|
eaaf gfed|cdef g2 fg|eaag eaag|eage d2 ed|

